X: 10603
T: DEVINE'S HORNPIPE
C: by T. D. Paine
%R: hornpipe, reel
B: Elias Howe "The Musician's Companion" Part 1 1842 p.50 #3
S: http://imslp.org/wiki/The_Musician's_Companion_(Howe,_Elias)
Z: 2015 John Chambers <jc:trillian.mit.edu>
M: 2/4
L: 1/16
K: D
% - - - - - - - - - - - - - - - - - - - - - - - - -
|:\
DFAd BdAd | efgf edBd | DFAd BdAd | fedB AdFA |\
DFAd BdAd | efgf edcd | gbag fedc | d3d d4 :|
|: fg |\
adfd ceAc | dcdA BGFG | GBFA EADF | AgBe dcBA |\
adfd ceAc | dfce DFAD | GBEA gfec | d2[f2d2]d2 :|
% - - - - - - - - - - - - - - - - - - - - - - - - -


